X: 61
T:Codiad yr Hedydd (fersiwn 2)
T:The Rising of the Lark (version 2)
M:C|
L:1/8
Q:120
S:Mary Richards' (1787-1877) Collection
R:March
A:Wales
Z:brian_martin12345@yahoo.com
K:D
A2AB cBcA|d>cBA ddAF|G/A/B/c/ dc/B/ A/B/c/d/ ec|ddAcd2d2:||!
d/e/f/g/ fe/d/ c/d/e/f/ ed/c/|B/c/d/e/ dd AA/B/ cA|defa gfed|!
d>cBA ddAF|G/A/B/c/ dc/B/ A/B/c/d/ ec|ddAcd4:||
